images/icons/facebook.svg

<svg width="24" height="24" viewBox="0 0 24 24" fill="none" xmlns="http://www.w3.org/2000/svg">
<path d="M10.695 8.937V10.314H9.68701V11.997H10.695V17H12.767V11.997H14.157C14.157 11.997 14.288 11.19 14.351 10.307H12.775V9.157C12.775 8.984 13.001 8.753 13.225 8.753H14.353V7H12.818C10.644 7 10.695 8.685 10.695 8.937Z" fill="white"/>
<path d="M6 4C5.46957 4 4.96086 4.21071 4.58579 4.58579C4.21071 4.96086 4 5.46957 4 6V18C4 18.5304 4.21071 19.0391 4.58579 19.4142C4.96086 19.7893 5.46957 20 6 20H18C18.5304 20 19.0391 19.7893 19.4142 19.4142C19.7893 19.0391 20 18.5304 20 18V6C20 5.46957 19.7893 4.96086 19.4142 4.58579C19.0391 4.21071 18.5304 4 18 4H6ZM6 2H18C19.0609 2 20.0783 2.42143 20.8284 3.17157C21.5786 3.92172 22 4.93913 22 6V18C22 19.0609 21.5786 20.0783 20.8284 20.8284C20.0783 21.5786 19.0609 22 18 22H6C4.93913 22 3.92172 21.5786 3.17157 20.8284C2.42143 20.0783 2 19.0609 2 18V6C2 4.93913 2.42143 3.92172 3.17157 3.17157C3.92172 2.42143 4.93913 2 6 2V2Z" fill="white"/>
</svg>

<svg width="24" height="24" fill="none" xmlns="http://www.w3.org/2000/svg"><path d="M10.695 8.937v1.377H9.687v1.683h1.008V17h2.072v-5.003h1.39s.131-.807.194-1.69h-1.576v-1.15c0-.173.226-.404.45-.404h1.128V7h-1.535c-2.174 0-2.123 1.685-2.123 1.937z" fill="#fff"/><path d="M6 4a2 2 0 00-2 2v12a2 2 0 002 2h12a2 2 0 002-2V6a2 2 0 00-2-2H6zm0-2h12a4 4 0 014 4v12a4 4 0 01-4 4H6a4 4 0 01-4-4V6a4 4 0 014-4z" fill="#fff"/></svg>
